packages/webapp/public/images/template-logos/monday.svg

<svg width="62" height="62" viewBox="0 0 62 62" fill="none" xmlns="http://www.w3.org/2000/svg">
<g clip-path="url(#clip0_496_1145)">
<path d="M14.3787 44.5908C13.4229 44.5929 12.4836 44.3412 11.6569 43.8615C10.8302 43.3818 10.1456 42.6912 9.67318 41.8603C9.20796 41.0353 8.97593 40.0992 9.00197 39.1524C9.02801 38.2056 9.31113 37.2837 9.821 36.4855L19.5112 21.2686C20.0072 20.4508 20.7113 19.7792 21.5517 19.3226C22.3922 18.866 23.3387 18.6406 24.2947 18.6695C25.25 18.6924 26.1821 18.9686 26.9955 19.4701C27.809 19.9715 28.4746 20.68 28.9243 21.5231C29.8276 23.2313 29.7147 25.2863 28.6328 26.8897L18.9487 42.1066C18.4576 42.8719 17.7813 43.5008 16.9824 43.935C16.1835 44.3693 15.288 44.5948 14.3787 44.5908Z" fill="#F62B54"/>
<path d="M31.0001 44.5901C29.0457 44.5901 27.2472 43.5451 26.3028 41.8658C25.8386 41.043 25.6072 40.1094 25.6332 39.1651C25.6592 38.2207 25.9418 37.3013 26.4506 36.5054L36.1224 21.3233C36.6111 20.494 37.3127 19.8105 38.1545 19.3438C38.9964 18.877 39.9478 18.6439 40.91 18.6688C42.8809 18.7119 44.667 19.8144 45.5704 21.5389C46.4675 23.2634 46.3361 25.3308 45.2213 26.9301L35.5517 42.1121C35.0621 42.8741 34.3885 43.5006 33.593 43.9336C32.7976 44.3667 31.9058 44.5925 31.0001 44.5901Z" fill="#FFCC00"/>
<path d="M47.2497 44.7175C50.0049 44.7175 52.2385 42.5308 52.2385 39.8333C52.2385 37.1359 50.0049 34.9492 47.2497 34.9492C44.4944 34.9492 42.2609 37.1359 42.2609 39.8333C42.2609 42.5308 44.4944 44.7175 47.2497 44.7175Z" fill="#00CA72"/>
</g>
<defs>
<clipPath id="clip0_496_1145">
<rect width="44" height="26.8291" fill="white" transform="translate(9 18)"/>
</clipPath>
</defs>
</svg>

<svg xmlns="http://www.w3.org/2000/svg" width="62" height="62" fill="none"><g clip-path="url(#A)"><path d="M14.379 44.591a5.4 5.4 0 0 1-4.706-2.73 5.22 5.22 0 0 1 .148-5.375l9.69-15.217c.496-.818 1.2-1.489 2.041-1.946s1.787-.682 2.743-.653a5.39 5.39 0 0 1 2.701.801c.814.501 1.479 1.21 1.929 2.053.903 1.708.79 3.763-.291 5.367l-9.684 15.217a5.4 5.4 0 0 1-4.57 2.484z" fill="#f62b54"/><path d="M31 44.59c-1.954 0-3.753-1.045-4.697-2.724-.464-.823-.696-1.756-.67-2.701s.309-1.864.817-2.66l9.672-15.182c.489-.829 1.19-1.513 2.032-1.979s1.793-.7 2.755-.675c1.971.043 3.757 1.146 4.66 2.87.897 1.724.766 3.792-.349 5.391l-9.67 15.182c-.49.762-1.163 1.389-1.959 1.822A5.39 5.39 0 0 1 31 44.59z" fill="#fc0"/><path d="M47.25 44.718c2.755 0 4.989-2.187 4.989-4.884s-2.234-4.884-4.989-4.884-4.989 2.187-4.989 4.884 2.233 4.884 4.989 4.884z" fill="#00ca72"/></g><defs><clipPath id="A"><path fill="#fff" transform="translate(9 18)" d="M0 0h44v26.829H0z"/></clipPath></defs></svg>
